X: 1
T: Gentle Maiden
O: Trad
R: waltz
N: Also played as a jig.
M: 3/4
L: 1/4
K: G
D \
| "G"G>AG | "D7"FED | "G"d2-d | "C"efg | "G"dcB | "G7"A2G | "Am"E3- | "D7"E2F |
y3 \
| "G"G>AG | "D7"FED | "G"d2-d | "C"efg | "G"d>cB | "D7"AGF | "G"G3- | G2 :|
|: d \
| "G7"d>ef | "C"g2-g | g>ag | g>fe | "G"d>cB | "Am"A2G | "C"E3 | "D7"F2F |
y2 \
| "G"G>AG | "D7"FED | "G"d2-d | "C"efg | "G"dcB | "Am"AG"D7"F | "G"G3- | G2 :|
